X: 2
T: Fingal's Cave
R: March
S: Morison – Highland Airs and Quicksteps, vol. 1 (c. 1882)
Z: AK/Fiddler's Companion
M: 2/4
L: 1/16
K: Am
[|\
A4 BAGA | B2A2 A2ed | B2AG e2dB | d2G2 G4 | A4 BAGA | B2A2 A2ed |
BBAG e2dB | e2A2 A4 |]| e2de g2^fg | {a}a2ea g2eg | e2de g2^fg | edBA G4 |
e2de g2^fg | a2ea g2eg | gefd gedB | e2A2 A4 |[| (e{f}e)de g2^fg | a2ea g2eg |
e2de g2^fg | edBA GABG | c2Bc d2cd | e2de g2a2 | gefd gedB | e2A2 A4 |]
